img/svg-ghost.svg

<svg width="16" height="16" viewBox="0 0 16 16" fill="none" xmlns="http://www.w3.org/2000/svg">
<path fill-rule="evenodd" clip-rule="evenodd" d="M11.5297 15.9446C10.0865 16.0185 8.43425 16.0185 7.87275 15.9446C3.49281 15.3684 0 12.166 0 7.8375C0 3.50897 3.58172 0 8 0C12.4183 0 16 3.50897 16 7.8375C16 9.85066 15.2252 11.6865 13.9519 13.0746C13.6061 13.4515 14.0805 13.7159 14.5626 13.9845C15.0353 14.248 15.5154 14.5155 15.2364 14.8973C14.9289 15.3179 13.2622 15.8559 11.5297 15.9446ZM6.875 6.85781C6.875 7.53412 6.31534 8.08241 5.625 8.08241C4.93466 8.08241 4.375 7.53412 4.375 6.85781C4.375 6.40422 4.62672 6.00825 5.00075 5.79659C5.02228 6.38631 5.50716 6.85778 6.10216 6.85778H6.875V6.85781ZM10.7493 5.79659C10.7277 6.38631 10.2428 6.85778 9.64784 6.85778H8.875V6.85781C8.875 7.53412 9.43466 8.08241 10.125 8.08241C10.8153 8.08241 11.375 7.53412 11.375 6.85781C11.375 6.40422 11.1233 6.00825 10.7493 5.79659Z" fill="#616EB7"/>
</svg>

<svg width="16" height="16" fill="none" xmlns="http://www.w3.org/2000/svg"><path fill-rule="evenodd" clip-rule="evenodd" d="M11.53 15.945c-1.444.073-3.096.073-3.657 0C3.493 15.368 0 12.166 0 7.838 0 3.509 3.582 0 8 0s8 3.509 8 7.838a7.72 7.72 0 0 1-2.048 5.237c-.346.377.129.64.61.91.473.263.953.53.674.912-.307.42-1.974.959-3.706 1.048ZM6.875 6.858c0 .676-.56 1.224-1.25 1.224s-1.25-.548-1.25-1.224c0-.454.252-.85.626-1.061.021.59.506 1.06 1.101 1.06h.773Zm3.874-1.061a1.102 1.102 0 0 1-1.101 1.06h-.773c0 .677.56 1.225 1.25 1.225s1.25-.548 1.25-1.224c0-.454-.252-.85-.626-1.061Z" fill="#616EB7"/></svg>
